icons/binary.svg

<svg width="16" height="16" viewBox="0 0 16 16" fill="none" xmlns="http://www.w3.org/2000/svg">
<path fill-rule="evenodd" clip-rule="evenodd" d="M3 4.5C3 3.11929 4.11929 2 5.5 2C6.88071 2 8 3.11929 8 4.5C8 5.88071 6.88071 7 5.5 7C4.11929 7 3 5.88071 3 4.5ZM4.5 4.5C4.5 3.94772 4.94772 3.5 5.5 3.5C6.05228 3.5 6.5 3.94772 6.5 4.5C6.5 5.05228 6.05228 5.5 5.5 5.5C4.94772 5.5 4.5 5.05228 4.5 4.5ZM8 11.5C8 10.1193 9.11929 9 10.5 9C11.8807 9 13 10.1193 13 11.5C13 12.8807 11.8807 14 10.5 14C9.11929 14 8 12.8807 8 11.5ZM9.5 11.5C9.5 10.9477 9.94772 10.5 10.5 10.5C11.0523 10.5 11.5 10.9477 11.5 11.5C11.5 12.0523 11.0523 12.5 10.5 12.5C9.94772 12.5 9.5 12.0523 9.5 11.5ZM11 2L9 4L9.5 4.5L10 5L11 4V7H12.5V2H11ZM3 11L5 9H6.5V14H5V11L4 12L3.5 11.5L3 11Z" fill="#E85B5B"/>
</svg>

<svg xmlns="http://www.w3.org/2000/svg" width="16" height="16" fill="none"><path fill="#E85B5B" fill-rule="evenodd" d="M3 4.5a2.5 2.5 0 1 1 5 0 2.5 2.5 0 0 1-5 0Zm1.5 0a1 1 0 1 1 2 0 1 1 0 0 1-2 0Zm3.5 7a2.5 2.5 0 1 1 5 0 2.5 2.5 0 0 1-5 0Zm1.5 0a1 1 0 1 1 2 0 1 1 0 0 1-2 0ZM11 2 9 4l.5.5.5.5 1-1v3h1.5V2H11Zm-8 9 2-2h1.5v5H5v-3l-1 1-.5-.5L3 11Z" clip-rule="evenodd"/></svg>
